;FLAVOR:Marlin
;TIME:14957
;Filament used: 7.1049m
;Layer height: 0.2
;MINX:63.5
;MINY:62.5
;MINZ:0.2
;MAXX:171.5
;MAXY:172.5
;MAXZ:5
;TARGET_MACHINE.NAME:Creality Ender-3
;Generated with Cura_SteamEngine 5.9.0
M140 S50
M105
M190 S50
M104 S200
M105
M109 S200
M82 ;absolute extrusion mode
; Ender 3 Custom Start G-code
G92 E0 ; Reset Extruder
G28 ; Home all axes
G1 Z2.0 F3000 ; Move Z Axis up little to prevent scratching of Heat Bed
G1 X0.1 Y20 Z0.3 F5000.0 ; Move to start position
G1 X0.1 Y200.0 Z0.3 F1500.0 E15 ; Draw the first line
G1 X0.4 Y200.0 Z0.3 F5000.0 ; Move to side a little
G1 X0.4 Y20 Z0.3 F1500.0 E30 ; Draw the second line
G92 E0 ; Reset Extruder
G1 Z2.0 F3000 ; Move Z Axis up little to prevent scratching of Heat Bed
G1 X5 Y20 Z0.3 F5000.0 ; Move over to prevent blob squish
G92 E0
G92 E0
G1 F2700 E-5
;LAYER_COUNT:25
;LAYER:0
M107
G0 F6000 X65.664 Y66.969 Z0.2
;TYPE:SKIRT
G1 F2700 E0
G1 F1200 X66.231 Y66.265 E0.03007
G1 X66.956 Y65.513 E0.06481
G1 X67.692 Y64.876 E0.09718
G1 X68.424 Y64.346 E0.12724
G1 X69.321 Y63.811 E0.16198
G1 X70.199 Y63.39 E0.19436
G1 X71.112 Y63.048 E0.22679
G1 X72.049 Y62.789 E0.25912
G1 X73.016 Y62.611 E0.29183
G1 X74.155 Y62.515 E0.32985
G1 X74.812 Y62.5 E0.3517
G1 X159.804 Y62.5 E3.17855
G1 X160.684 Y62.513 E3.20782
G1 X161.656 Y62.572 E3.24021
G1 X162.619 Y62.718 E3.2726
G1 X163.566 Y62.949 E3.30503
G1 X164.454 Y63.249 E3.3362
G1 X165.346 Y63.639 E3.36858
G1 X166.229 Y64.126 E3.40212
G1 X166.98 Y64.628 E3.43216
G1 X167.795 Y65.286 E3.467
G1 X168.493 Y65.964 E3.49937
G1 X169.129 Y66.701 E3.53175
G1 X169.699 Y67.491 E3.56415
G1 X170.161 Y68.267 E3.59418
G1 X170.615 Y69.209 E3.62896
G1 X170.944 Y70.087 E3.66015
G1 X171.213 Y71.059 E3.69369
G1 X171.39 Y72.025 E3.72636
G1 X171.485 Y73.155 E3.76407
G1 X171.5 Y73.83 E3.78653
G1 X171.499 Y160.9 E6.68249
G1 X171.488 Y161.663 E6.70787
G1 X171.431 Y162.636 E6.74029
G1 X171.286 Y163.599 E6.77268
G1 X171.057 Y164.545 E6.80505
G1 X170.746 Y165.469 E6.83748
G1 X170.354 Y166.36 E6.86985
G1 X169.886 Y167.212 E6.90219
G1 X169.364 Y167.993 E6.93343
G1 X168.731 Y168.778 E6.96697
G1 X168.106 Y169.429 E6.99699
G1 X167.317 Y170.117 E7.0318
G1 X166.557 Y170.667 E7.06301
G1 X165.69 Y171.184 E7.09658
G1 X164.812 Y171.606 E7.12898
G1 X163.901 Y171.948 E7.16135
G1 X162.962 Y172.209 E7.19376
G1 X161.996 Y172.387 E7.22643
G1 X160.845 Y172.485 E7.26485
G1 X160.17 Y172.5 E7.28731
G1 X75.064 Y172.499 E10.11795
G1 X74.331 Y172.488 E10.14233
G1 X73.359 Y172.431 E10.17471
G1 X72.396 Y172.285 E10.20711
G1 X71.45 Y172.056 E10.23948
G1 X70.526 Y171.744 E10.27192
G1 X69.636 Y171.352 E10.30426
G1 X68.813 Y170.901 E10.33548
G1 X67.974 Y170.34 E10.36905
G1 X67.27 Y169.774 E10.39909
G1 X66.517 Y169.049 E10.43386
G1 X65.88 Y168.313 E10.46623
G1 X65.35 Y167.582 E10.49626
G1 X64.814 Y166.685 E10.53102
G1 X64.392 Y165.807 E10.56342
G1 X64.05 Y164.895 E10.59581
G1 X63.79 Y163.957 E10.62819
G1 X63.612 Y162.988 E10.66096
G1 X63.514 Y161.809 E10.7003
G1 X63.5 Y161.158 E10.72196
G1 X63.501 Y74.025 E13.62002
G1 X63.512 Y73.325 E13.6433
G1 X63.57 Y72.352 E13.67572
G1 X63.716 Y71.389 E13.70812
G1 X63.946 Y70.443 E13.7405
G1 X64.259 Y69.52 E13.77291
G1 X64.651 Y68.63 E13.80526
G1 X65.121 Y67.777 E13.83765
G1 X65.664 Y66.969 E13.87003
G0 F6000 X66.543 Y66.516
G1 F1200 X67.218 Y65.815 E13.9024
G1 X67.927 Y65.2 E13.93362
G1 X68.659 Y64.67 E13.96367
G1 X69.495 Y64.171 E13.99606
G1 X70.34 Y63.764 E14.02725
G1 X71.219 Y63.433 E14.05849
G1 X72.122 Y63.182 E14.08966
G1 X73.05 Y63.01 E14.12105
G1 X74.189 Y62.914 E14.15907
G1 X74.821 Y62.9 E14.1801
G1 X159.798 Y62.9 E17.00644
G1 X160.66 Y62.912 E17.03512
G1 X161.597 Y62.968 E17.06634
G1 X162.525 Y63.107 E17.09755
G1 X163.438 Y63.328 E17.12879
G1 X164.294 Y63.616 E17.15883
G1 X165.186 Y64.006 E17.19121
G1 X166.007 Y64.459 E17.2224
G1 X166.758 Y64.961 E17.25244
G1 X167.517 Y65.573 E17.28487
G1 X168.191 Y66.226 E17.31608
G1 X168.805 Y66.935 E17.34728
G1 X169.355 Y67.696 E17.37851
G1 X169.817 Y68.472 E17.40855
G1 X170.24 Y69.349 E17.44093
G1 X170.569 Y70.227 E17.47212
G1 X170.82 Y71.132 E17.50335
G1 X170.991 Y72.059 E17.5347
G1 X171.086 Y73.189 E17.57242
G1 X171.1 Y73.83 E17.59375
G1 X171.099 Y160.895 E20.48954
G1 X171.089 Y161.64 E20.51432
G1 X171.035 Y162.577 E20.54554
G1 X170.897 Y163.506 E20.57677
G1 X170.678 Y164.418 E20.60797
G1 X170.38 Y165.308 E20.63919
G1 X170.003 Y166.168 E20.67042
G1 X169.553 Y166.99 E20.70159
G1 X169.031 Y167.771 E20.73283
G1 X168.442 Y168.501 E20.76403
G1 X167.817 Y169.152 E20.79404
G1 X167.082 Y169.793 E20.82648
G1 X166.322 Y170.343 E20.85768
G1 X165.516 Y170.824 E20.8889
G1 X164.671 Y171.232 E20.92011
G1 X163.793 Y171.563 E20.95132
G1 X162.889 Y171.816 E20.98254
G1 X161.962 Y171.988 E21.0139
G1 X160.811 Y172.086 E21.05232
G1 X160.17 Y172.1 E21.07365
G1 X75.07 Y172.099 E23.90408
G1 X74.354 Y172.089 E23.9279
G1 X73.418 Y172.035 E23.95908
G1 X72.489 Y171.896 E23.99033
G1 X71.577 Y171.677 E24.02152
G1 X70.687 Y171.378 E24.05275
G1 X69.828 Y171.001 E24.08395
G1 X69.005 Y170.55 E24.11516
G1 X68.225 Y170.028 E24.14638
G1 X67.521 Y169.462 E24.17643
G1 X66.819 Y168.787 E24.20882
G1 X66.204 Y168.078 E24.24003
G1 X65.674 Y167.347 E24.27006
G1 X65.174 Y166.511 E24.30246
G1 X64.766 Y165.666 E24.33367
G1 X64.435 Y164.788 E24.36488
G1 X64.183 Y163.884 E24.3961
G1 X64.011 Y162.955 E24.42752
G1 X63.913 Y161.776 E24.46687
G1 X63.9 Y161.158 E24.48743
G1 X63.901 Y74.031 E27.38528
G1 X63.911 Y73.348 E27.408
G1 X63.966 Y72.411 E27.43922
G1 X64.105 Y71.483 E27.47043
G1 X64.325 Y70.571 E27.50163
G1 X64.625 Y69.681 E27.53287
G1 X65.002 Y68.822 E27.56407
G1 X65.453 Y68 E27.59526
G1 X65.976 Y67.22 E27.62649
G1 X66.543 Y66.516 E27.65656
G0 F6000 X67.481 Y66.117
G1 F1200 X68.162 Y65.524 E27.68659
G1 X68.894 Y64.994 E27.71665
G1 X69.669 Y64.531 E27.74668
G1 X70.482 Y64.138 E27.77671
G1 X71.327 Y63.818 E27.80676
G1 X72.196 Y63.575 E27.83677
G1 X73.084 Y63.409 E27.86682
G1 X74.223 Y63.313 E27.90484
G1 X74.83 Y63.3 E27.92503
G1 X159.793 Y63.3 E30.75091
G1 X160.637 Y63.311 E30.77899
G1 X161.539 Y63.364 E30.80904
G1 X162.432 Y63.496 E30.83906
G1 X163.31 Y63.707 E30.8691
G1 X164.166 Y63.995 E30.89914
G1 X164.993 Y64.357 E30.92916
G1 X165.785 Y64.792 E30.95922
G1 X166.536 Y65.294 E30.98926
G1 X167.239 Y65.861 E31.0193
G1 X167.889 Y66.488 E31.04934
G1 X168.481 Y67.17 E31.07937
G1 X169.011 Y67.901 E31.10941
G1 X169.473 Y68.677 E31.13944
G1 X169.866 Y69.49 E31.16948
G1 X170.184 Y70.335 E31.19951
G1 X170.427 Y71.205 E31.22955
G1 X170.592 Y72.093 E31.25959
G1 X170.687 Y73.223 E31.29731
G1 X170.7 Y73.83 E31.3175
G1 X170.699 Y160.89 E34.21313
G1 X170.69 Y161.617 E34.23731
G1 X170.639 Y162.519 E34.26736
G1 X170.508 Y163.413 E34.29741
G1 X170.299 Y164.291 E34.32743
G1 X170.013 Y165.148 E34.35748
G1 X169.652 Y165.976 E34.38752
G1 X169.22 Y166.768 E34.41753
G1 X168.719 Y167.52 E34.44758
G1 X168.153 Y168.224 E34.47763
G1 X167.528 Y168.875 E34.50764
G1 X166.847 Y169.469 E34.5377
G1 X166.116 Y170 E34.56775
G1 X165.342 Y170.464 E34.59776
G1 X164.529 Y170.858 E34.62781
G1 X163.685 Y171.178 E34.65783
G1 X162.815 Y171.423 E34.68789
G1 X161.928 Y171.589 E34.71791
G1 X160.777 Y171.687 E34.75633
G1 X160.17 Y171.7 E34.77652
G1 X75.075 Y171.699 E37.60679
G1 X74.377 Y171.69 E37.63001
G1 X73.476 Y171.639 E37.66003
G1 X72.582 Y171.507 E37.69008
G1 X71.704 Y171.298 E37.7201
G1 X70.847 Y171.011 E37.75016
G1 X70.02 Y170.65 E37.78018
G1 X69.227 Y170.217 E37.81023
G1 X68.476 Y169.716 E37.84025
G1 X67.772 Y169.15 E37.8703
G1 X67.121 Y168.524 E37.90034
G1 X66.528 Y167.843 E37.93037
G1 X65.998 Y167.112 E37.9604
G1 X65.534 Y166.337 E37.99044
G1 X65.14 Y165.524 E38.02049
G1 X64.82 Y164.68 E38.05051
G1 X64.576 Y163.81 E38.08057
G1 X64.41 Y162.922 E38.11061
G1 X64.313 Y161.767 E38.14916
G1 X64.3 Y161.158 E38.16942
G1 X64.301 Y74.036 E41.06711
G1 X64.31 Y73.371 E41.08923
G1 X64.362 Y72.469 E41.11928
G1 X64.494 Y71.576 E41.14931
G1 X64.704 Y70.698 E41.17933
G1 X64.991 Y69.841 E41.20939
G1 X65.353 Y69.014 E41.23942
G1 X65.786 Y68.222 E41.26944
G1 X66.288 Y67.471 E41.29949
G1 X66.855 Y66.767 E41.32955
G1 X67.481 Y66.117 E41.35957
G1 F2700 E36.35957
;MESH:HQ145_Speaker_Cover.stl
G0 F6000 X77.719 Y77.502
G0 X78.654 Y91.873
;TYPE:WALL-INNER
G1 F2700 E41.35957
G1 F1200 X78.314 Y91.864 E41.37088
G1 X78.118 Y91.755 E41.37834
G1 X77.996 Y91.619 E41.38442
G1 X77.9 Y91.376 E41.39311
G1 X77.9 Y77.5 E41.85462
G1 X77.949 Y77.261 E41.86274
G1 X78.075 Y77.075 E41.87021
G1 X78.261 Y76.949 E41.87768
G1 X78.422 Y76.9 E41.88328
G1 X80.5 Y76.9 E41.95239
G1 X80.783 Y76.97 E41.96209
G1 X80.938 Y77.089 E41.96859
G1 X81.1 Y77.5 E41.98328
G1 X81.1 Y91.137 E42.43685
G1 X80.917 Y91.481 E42.44981
G1 X80.649 Y91.63 E42.46001
G1 X80.442 Y91.646 E42.46692
G1 X80.001 Y91.604 E42.48165
G1 X79.341 Y91.669 E42.50371
G1 X78.654 Y91.873 E42.52754
G1 F2700 E37.52754
G0 F6000 X78.901 Y92.422
G0 X80.029 Y97.606
G1 F2700 E42.52754
G1 F1200 X79.496 Y97.558 E42.54534
G1 X79.006 Y97.403 E42.56244
G1 X78.553 Y97.167 E42.57942
G1 X78.016 Y96.719 E42.60268
G1 X77.9 Y96.424 E42.61323
G1 X77.9 Y93.656 E42.70529
G1 X78.01 Y93.282 E42.71826
G1 X78.551 Y92.836 E42.74158
G1 X79.005 Y92.593 E42.75871
G1 X79.493 Y92.444 E42.77568
G1 X80.001 Y92.399 E42.79264
G1 X80.238 Y92.448 E42.80069
G1 X80.41 Y92.561 E42.80753
G1 X80.527 Y92.711 E42.81386
G1 X80.6 Y93 E42.82377
G1 X80.6 Y97.111 E42.96051
G1 X80.41 Y97.44 E42.97314
G1 X80.234 Y97.554 E42.98012
G1 X80.029 Y97.606 E42.98715
G1 F2700 E37.98715
G0 F6000 X80.436 Y97.481
G0 X80.78 Y93.6
G0 X82.754 Y93.367
G0 X84.5 Y93.6
G1 F2700 E42.98715
G1 F1200 X83.392 Y93.598 E43.024
G1 X83.146 Y93.522 E43.03257
G1 X82.915 Y93.284 E43.0436
G1 X82.823 Y93.112 E43.05009
G1 X82.4 Y92.598 E43.07223
G1 X82.016 Y92.278 E43.08885
G1 X81.9 Y92.01 E43.09856
G1 X81.9 Y77.5 E43.58117
G1 X82.062 Y77.089 E43.59586
G1 X82.217 Y76.97 E43.60236
G1 X82.419 Y76.9 E43.60947
G1 X84.5 Y76.9 E43.67869
G1 X84.783 Y76.97 E43.68838
G1 X84.938 Y77.089 E43.69488
G1 X85.1 Y77.5 E43.70958
G1 X85.098 Y93.052 E44.22684
G1 X85.037 Y93.269 E44.23433
G1 X84.925 Y93.425 E44.24072
G1 X84.769 Y93.537 E44.24711
G1 X84.5 Y93.6 E44.2563
G1 F2700 E39.2563
G0 F6000 X85.052 Y93.552
G0 X85.802 Y93.35
G0 X88.5 Y93.6
G1 F2700 E44.2563
G1 F1200 X86.448 Y93.598 E44.32455
G1 X86.231 Y93.537 E44.33205
G1 X86.075 Y93.425 E44.33843
G1 X85.963 Y93.269 E44.34482
G1 X85.902 Y93.052 E44.35232
G1 X85.9 Y77.5 E44.86958
G1 X86.062 Y77.089 E44.88427
G1 X86.217 Y76.97 E44.89077
G1 X86.419 Y76.9 E44.89788
G1 X88.5 Y76.9 E44.9671
G1 X88.783 Y76.97 E44.97679
G1 X88.938 Y77.089 E44.98329
G1 X89.1 Y77.5 E44.99799
G1 X89.098 Y93.052 E45.51525
G1 X89.037 Y93.269 E45.52274
G1 X88.925 Y93.425 E45.52913
G1 X88.769 Y93.537 E45.53552
G1 X88.5 Y93.6 E45.54471
G1 F2700 E40.54471
G0 F6000 X89.052 Y93.552
G0 X89.802 Y93.35
G0 X92.5 Y93.6
G1 F2700 E45.54471
G1 F1200 X90.448 Y93.598 E45.61296
G1 X90.231 Y93.537 E45.62046
G1 X90.075 Y93.425 E45.62684
G1 X89.963 Y93.269 E45.63323
G1 X89.902 Y93.052 E45.64073
G1 X89.9 Y77.5 E46.15799
G1 X90.062 Y77.089 E46.17268
G1 X90.217 Y76.97 E46.17918
G1 X90.419 Y76.9 E46.18629
G1 X92.5 Y76.9 E46.25551
G1 X92.783 Y76.97 E46.2652
G1 X92.938 Y77.089 E46.2717
G1 X93.1 Y77.5 E46.2864
G1 X93.098 Y93.052 E46.80366
G1 X93.037 Y93.269 E46.81116
G1 X92.925 Y93.425 E46.81754
G1 X92.769 Y93.537 E46.82393
G1 X92.5 Y93.6 E46.83312
G1 F2700 E41.83312
G0 F6000 X93.052 Y93.552
G0 X93.802 Y93.35
G0 X96.5 Y93.6
G1 F2700 E46.83312
G1 F1200 X94.448 Y93.598 E46.90137
G1 X94.231 Y93.537 E46.90887
G1 X94.075 Y93.425 E46.91525
G1 X93.963 Y93.269 E46.92164
G1 X93.902 Y93.052 E46.92914
G1 X93.9 Y77.5 E47.4464
G1 X94.062 Y77.089 E47.46109
G1 X94.217 Y76.97 E47.46759
G1 X94.419 Y76.9 E47.4747
G1 X96.5 Y76.9 E47.54392
G1 X96.783 Y76.97 E47.55361
G1 X96.938 Y77.089 E47.56011
G1 X97.1 Y77.5 E47.57481
G1 X97.098 Y93.052 E48.09207
G1 X97.037 Y93.269 E48.09957
G1 X96.925 Y93.425 E48.10595
G1 X96.769 Y93.537 E48.11234
G1 X96.5 Y93.6 E48.12153
G1 F2700 E43.12153
G0 F6000 X97.052 Y93.552
G0 X97.802 Y93.35
G0 X100.5 Y93.6
G1 F2700 E48.12153
G1 F1200 X98.448 Y93.598 E48.18978
G1 X98.231 Y93.537 E48.19728
G1 X98.075 Y93.425 E48.20366
G1 X97.963 Y93.269 E48.21005
G1 X97.902 Y93.052 E48.21755
G1 X97.9 Y77.5 E48.73481
G1 X98.062 Y77.089 E48.7495
G1 X98.217 Y76.97 E48.756
G1 X98.419 Y76.9 E48.76311
G1 X100.5 Y76.9 E48.83233
G1 X100.783 Y76.97 E48.84202
G1 X100.938 Y77.089 E48.84852
G1 X101.1 Y77.5 E48.86322
G1 X101.098 Y93.052 E49.38048
G1 X101.037 Y93.269 E49.38798
G1 X100.925 Y93.425 E49.39436
G1 X100.769 Y93.537 E49.40075
G1 X100.5 Y93.6 E49.40994
G1 F2700 E44.40994
G0 F6000 X101.052 Y93.552
G0 X101.802 Y93.35
G0 X104.5 Y93.6
G1 F2700 E49.40994
G1 F1200 X102.448 Y93.598 E49.47819
G1 X102.231 Y93.537 E49.48569
G1 X102.075 Y93.425 E49.49207
G1 X101.963 Y93.269 E49.49846
G1 X101.902 Y93.052 E49.50596
G1 X101.9 Y77.5 E50.02322
G1 X102.062 Y77.089 E50.03791
G1 X102.217 Y76.97 E50.04441
G1 X102.419 Y76.9 E50.05152
G1 X104.5 Y76.9 E50.12074
G1 X104.783 Y76.97 E50.13043
G1 X104.938 Y77.089 E50.13693
G1 X105.1 Y77.5 E50.15163
G1 X105.098 Y93.052 E50.66889
G1 X105.037 Y93.269 E50.67639
G1 X104.925 Y93.425 E50.68277
G1 X104.769 Y93.537 E50.68916
G1 X104.5 Y93.6 E50.69835
G1 F2700 E45.69835
G0 F6000 X105.052 Y93.552
G0 X105.802 Y93.35
G0 X108.5 Y93.6
G1 F2700 E50.69835
G1 F1200 X106.448 Y93.598 E50.7666
G1 X106.231 Y93.537 E50.7741
G1 X106.075 Y93.425 E50.78048
G1 X105.963 Y93.269 E50.78687
G1 X105.902 Y93.052 E50.79437
G1 X105.9 Y77.5 E51.31163
G1 X106.062 Y77.089 E51.32632
G1 X106.217 Y76.97 E51.33282
G1 X106.419 Y76.9 E51.33993
G1 X108.5 Y76.9 E51.40915
G1 X108.783 Y76.97 E51.41884
G1 X108.938 Y77.089 E51.42534
G1 X109.1 Y77.5 E51.44004
G1 X109.098 Y93.052 E51.9573
G1 X109.037 Y93.269 E51.9648
G1 X108.925 Y93.425 E51.97118
G1 X108.769 Y93.537 E51.97757
G1 X108.5 Y93.6 E51.98676
G1 F2700 E46.98676
G0 F6000 X109.052 Y93.552
G0 X109.802 Y93.35
G0 X112.5 Y93.6
G1 F2700 E51.98676
G1 F1200 X110.448 Y93.598 E52.05501
G1 X110.231 Y93.537 E52.06251
G1 X110.075 Y93.425 E52.06889
G1 X109.963 Y93.269 E52.07528
G1 X109.902 Y93.052 E52.08278
G1 X109.9 Y77.5 E52.60004
G1 X110.062 Y77.089 E52.61473
G1 X110.217 Y76.97 E52.62123
G1 X110.419 Y76.9 E52.62834
G1 X112.5 Y76.9 E52.69756
G1 X112.783 Y76.97 E52.70725
G1 X112.938 Y77.089 E52.71375
G1 X113.1 Y77.5 E52.72845
G1 X113.098 Y93.052 E53.24571
G1 X113.037 Y93.269 E53.25321
G1 X112.925 Y93.425 E53.25959
G1 X112.769 Y93.537 E53.26598
G1 X112.5 Y93.6 E53.27517
G1 F2700 E48.27517
G0 F6000 X113.052 Y93.552
G0 X113.802 Y93.35
G0 X116.5 Y93.6
G1 F2700 E53.27517
G1 F1200 X114.448 Y93.598 E53.34342
G1 X114.231 Y93.537 E53.35092
G1 X114.075 Y93.425 E53.3573
G1 X113.963 Y93.269 E53.36369
G1 X113.902 Y93.052 E53.37119
G1 X113.9 Y77.5 E53.88845
G1 X114.062 Y77.089 E53.90314
G1 X114.217 Y76.97 E53.90964
G1 X114.419 Y76.9 E53.91675
G1 X116.5 Y76.9 E53.98597
G1 X116.783 Y76.97 E53.99566
G1 X116.938 Y77.089 E54.00216
G1 X117.1 Y77.5 E54.01686
G1 X117.098 Y93.052 E54.53412
G1 X117.037 Y93.269 E54.54162
G1 X116.925 Y93.425 E54.548
G1 X116.769 Y93.537 E54.55439
G1 X116.5 Y93.6 E54.56358
G1 F2700 E49.56358
G0 F6000 X117.241 Y93.196
G0 X117.722 Y93.068
G0 X118.669 Y93.599
G1 F2700 E54.56358
G1 F1200 X118.448 Y93.598 E54.57093
G1 X118.231 Y93.537 E54.57843
G1 X118.075 Y93.425 E54.58481
G1 X117.963 Y93.269 E54.5912
G1 X117.902 Y93.052 E54.5987
G1 X117.9 Y77.5 E55.11596
G1 X118.062 Y77.089 E55.13065
G1 X118.217 Y76.97 E55.13715
G1 X118.419 Y76.9 E55.14426
G1 X120.5 Y76.9 E55.21348
G1 X120.783 Y76.97 E55.22317
G1 X120.938 Y77.089 E55.22967
G1 X121.1 Y77.5 E55.24437
G1 X121.098 Y93.052 E55.76163
G1 X121.037 Y93.269 E55.76913
G1 X120.925 Y93.425 E55.77551
G1 X120.769 Y93.537 E55.7819
G1 X120.5 Y93.6 E55.79109
G1 X118.669 Y93.599 E55.85199
G1 F2700 E50.85199
G0 F6000 X120.711 Y93.454
G0 X121.198 Y93.35
G0 X121.758 Y93.193
G0 X122.448 Y93.598
G1 F2700 E55.85199
G1 F1200 X122.231 Y93.537 E55.85949
G1 X122.075 Y93.425 E55.86587
G1 X121.963 Y93.269 E55.87226
G1 X121.902 Y93.052 E55.87976
G1 X121.9 Y77.5 E56.39702
G1 X122.062 Y77.089 E56.41171
G1 X122.217 Y76.97 E56.41821
G1 X122.419 Y76.9 E56.42532
G1 X124.5 Y76.9 E56.49454
G1 X124.783 Y76.97 E56.50423
